resources/devices/mic_on_stand_2.svg

<?xml version="1.0" encoding="UTF-8" standalone="no"?>
<!-- Created with Inkscape (http://www.inkscape.org/) -->

<svg
   width="80"
   height="80"
   viewBox="0 0 80 80"
   version="1.1"
   id="svg1"
   inkscape:version="1.3.2 (091e20e, 2023-11-25)"
   sodipodi:docname="mic_on_stand_2.svg"
   xmlns:inkscape="http://www.inkscape.org/namespaces/inkscape"
   xmlns:sodipodi="http://sodipodi.sourceforge.net/DTD/sodipodi-0.dtd"
   xmlns="http://www.w3.org/2000/svg"
   xmlns:svg="http://www.w3.org/2000/svg"
   xmlns:rdf="http://www.w3.org/1999/02/22-rdf-syntax-ns#"
   xmlns:cc="http://creativecommons.org/ns#">
  <sodipodi:namedview
     id="namedview1"
     pagecolor="#ffffff"
     bordercolor="#000000"
     borderopacity="0.25"
     inkscape:showpageshadow="2"
     inkscape:pageopacity="0.0"
     inkscape:pagecheckerboard="0"
     inkscape:deskcolor="#d1d1d1"
     inkscape:document-units="px"
     inkscape:zoom="2.2525239"
     inkscape:cx="-7.9910363"
     inkscape:cy="29.966386"
     inkscape:window-width="1336"
     inkscape:window-height="828"
     inkscape:window-x="145"
     inkscape:window-y="40"
     inkscape:window-maximized="0"
     inkscape:current-layer="layer1" />
  <defs
     id="defs1" />
  <g
     inkscape:label="Слой 1"
     inkscape:groupmode="layer"
     id="layer1">
    <g
       id="g10"
       transform="rotate(-165.73614,19.316687,1.8092674)"
       inkscape:label="main">
      <path
         d="m -8.7650035,-64.390035 c 0.1923593,-0.0489 0.3086529,-0.244482 0.2597504,-0.436841 l -0.5587035,-2.197672 c -0.048903,-0.192359 -0.244001,-0.30676 -0.4363603,-0.257857 l -16.4380541,4.178967 c -0.19236,0.0489 -0.309135,0.242589 -0.260232,0.434949 l 0.558703,2.197671 c 0.0489,0.19236 0.244483,0.308653 0.436842,0.259751 z"
         style="stroke:#000000;stroke-width:0.265001;stroke-linecap:square;stroke-linejoin:round;stroke-miterlimit:4.7"
         id="path12"
         inkscape:label="base" />
      <path
         d="M -2.5338723,-2.5037661 -1.2289114,-3.3635162 -16.028057,-61.576262 c -0.0489,-0.19236 -0.242589,-0.309135 -0.434948,-0.260232 l -0.757165,0.19249 c -0.19236,0.0489 -0.30676,0.244001 -0.257858,0.436361 l 14.9006841,58.6121506 c 0.00866,0.034074 0.026507,0.062963 0.043472,0.091726 z"
         style="stroke-width:0.264999;stroke-linecap:square;stroke-linejoin:round;stroke-miterlimit:4.7"
         id="path9"
         inkscape:label="stand" />
      <g
         id="g20"
         style="display:inline"
         inkscape:label="mic">
        <path
           id="path18"
           style="stroke-width:0.140747;stroke-linecap:square;stroke-linejoin:round;stroke-miterlimit:4.7"
           d="m -8.2082567,5.4017201 -2.0174223,-2.8384855 -0.766344,0.5051729 c -0.289876,0.2043749 -0.456361,1.0799817 -0.280166,1.3791241 l 0.688398,0.9797318 c 0.215752,0.3045429 1.0879773,0.9656285 1.3937804,0.7500242 z M -8.4874632,1.4180133 -9.875103,2.3330418 -7.8777007,5.1403423 -6.5757859,4.1100701 a 2.7126042,2.7218296 75.736066 0 0 0.00462,-0.029388 L -8.4585243,1.4287936 a 2.7126042,2.7218296 75.736066 0 0 -0.028939,-0.01078 z m 1.9116773,2.6920568 -1.3019148,1.0302722 0.5544846,0.7779912 A 2.7126042,2.7218296 75.736066 0 0 -7.1821447,5.7756612 2.7126042,2.7218296 75.736066 0 0 -6.5757859,4.1100701 Z M -7.6442435,6.193411 -8.2082567,5.4017201 -9.1900106,6.1772876 C -9.4958137,6.3928919 -10.368039,5.7318063 -10.583791,5.4272634 l -0.688398,-0.9797318 c -0.176195,-0.2991424 -0.0097,-1.1747492 0.280166,-1.3791241 L -10.225679,2.5632346 -10.7835,1.7800458 a 2.7126042,2.7218296 75.736066 0 0 -0.535762,0.476782 2.7126042,2.7218296 75.736066 0 0 0.299421,3.8254086 2.7126042,2.7218296 75.736066 0 0 3.3755975,0.1111746 z m -2.7715485,-4.6237304 0.540689,0.7633612 1.3876398,-0.9150285 a 2.7126042,2.7218296 75.736066 0 0 -1.9283288,0.1516673 z"
           inkscape:label="capsule" />
        <path
           id="path22"
           style="fill:#808080;stroke-width:0.140747;stroke-linecap:square;stroke-linejoin:round;stroke-miterlimit:4.7"
           d="M -6.1040312,3.7382306 3.454242,-3.8165103 C 3.678519,-4.0044075 3.9695326,-4.2285072 3.6845443,-4.6307786 L 3.0242832,-5.5632515 c -0.2157539,-0.3045444 -0.6056143,-0.217669 -0.9114188,-0.00206 l -3.3417764,2.2017981 0.1015387,0.3994046 c 0.048903,0.1923592 -0.065498,0.3874578 -0.2578574,0.4363603 l -0.7571651,0.1924904 c -0.1582852,0.04024 -0.312672,-0.034889 -0.391477,-0.1685052 l -5.4546618,3.5934138 z m 3.5701584,-6.2419976 c 0.078805,0.1336161 0.2331918,0.2087452 0.391477,0.1685052 l 0.7571651,-0.1924904 c 0.1923593,-0.048903 0.3067604,-0.2440011 0.2578574,-0.4363603 L -1.228912,-3.3635171 Z"
           inkscape:label="holder" />
      </g>
    </g>
  </g>
  <metadata
     id="metadata1">
    <rdf:RDF>
      <cc:License
         rdf:about="http://creativecommons.org/licenses/by-nc/4.0/">
        <cc:permits
           rdf:resource="http://creativecommons.org/ns#Reproduction" />
        <cc:permits
           rdf:resource="http://creativecommons.org/ns#Distribution" />
        <cc:requires
           rdf:resource="http://creativecommons.org/ns#Notice" />
        <cc:requires
           rdf:resource="http://creativecommons.org/ns#Attribution" />
        <cc:prohibits
           rdf:resource="http://creativecommons.org/ns#CommercialUse" />
        <cc:permits
           rdf:resource="http://creativecommons.org/ns#DerivativeWorks" />
      </cc:License>
      <cc:Work
         rdf:about="">
        <cc:license
           rdf:resource="http://creativecommons.org/licenses/by-nc/4.0/" />
      </cc:Work>
    </rdf:RDF>
  </metadata>
</svg>

<svg xmlns="http://www.w3.org/2000/svg" width="80" height="80"><path d="M-8.765-64.39a.36.36 0 0 0 .26-.437l-.559-2.198a.36.36 0 0 0-.436-.257l-16.438 4.179a.36.36 0 0 0-.26.435l.558 2.197a.36.36 0 0 0 .437.26z" style="stroke:#000;stroke-width:.265001;stroke-linecap:square;stroke-linejoin:round;stroke-miterlimit:4.7" transform="rotate(-165.736 19.317 1.81)"/><path d="m-2.534-2.504 1.305-.86-14.8-58.212a.36.36 0 0 0-.434-.26l-.757.192a.36.36 0 0 0-.258.436l14.9 58.613q.017.05.044.091" style="stroke-width:.264999;stroke-linecap:square;stroke-linejoin:round;stroke-miterlimit:4.7" transform="rotate(-165.736 19.317 1.81)"/><g style="display:inline"><path d="m-8.208 5.402-2.018-2.839-.766.505c-.29.205-.456 1.08-.28 1.38l.688.98c.216.304 1.088.965 1.394.75zm-.28-3.984-1.387.915 1.997 2.807 1.302-1.03a2.713 2.722 75.736 0 0 .005-.03L-8.46 1.43a2.713 2.722 75.736 0 0-.028-.011m1.912 2.692-1.302 1.03.555.778a2.713 2.722 75.736 0 0 .14-.142 2.713 2.722 75.736 0 0 .607-1.666m-1.068 2.083-.564-.791-.982.775c-.306.216-1.178-.445-1.394-.75l-.688-.98c-.176-.299-.01-1.174.28-1.379l.766-.505-.557-.783a2.713 2.722 75.736 0 0-.536.477 2.713 2.722 75.736 0 0 .3 3.825 2.713 2.722 75.736 0 0 3.375.111m-2.772-4.623.54.763 1.389-.915a2.713 2.722 75.736 0 0-1.929.152" style="stroke-width:.140747;stroke-linecap:square;stroke-linejoin:round;stroke-miterlimit:4.7" transform="rotate(-165.736 19.317 1.81)"/><path d="m-6.104 3.738 9.558-7.555c.225-.187.516-.412.23-.814l-.66-.932c-.215-.305-.605-.218-.911-.002L-1.23-3.364l.102.4a.36.36 0 0 1-.258.436l-.757.193a.35.35 0 0 1-.392-.169L-7.989 1.09zm3.57-6.242a.35.35 0 0 0 .392.169l.757-.193a.36.36 0 0 0 .258-.436l-.102-.4Z" style="fill:gray;stroke-width:.140747;stroke-linecap:square;stroke-linejoin:round;stroke-miterlimit:4.7" transform="rotate(-165.736 19.317 1.81)"/></g></svg>
